X: 54
T: No_59_Song_of_Thanks_for_a_Pony.krn
N: Derived from No_59_Song_of_Thanks_for_a_Pony.krn
%%abc-version 2.0
%%abcx-abcm2ps-target-version 5.9.1 (29 Sep 2008)
%%abc-creator hum2abc beta
%%abcx-conversion-date 2019/03/15 08:27:55
%%humdrum-veritas 969189559
%%humdrum-veritas-data 4002508923
%%linebreak <none>
%%barnumbers 0
L: 1/8
M: 3/4
K: A clef=bass
[K:clef=bass][M:3/4]E2-(E3C/) z/ | 
[M:2/4]E3/C/ B, z | 
E4 | 
[M:3/4]E4CC | 
[M:2/4]B,4 | 
A,3/F,/ E, z | 
B,4 | 
[M:3/4]B,4A,3/F,/ | 
[M:2/4]A,3F, | 
E,2E,2 | 
(E,^D,/) z/E,2 | 
E,4 | 
z2z3/ E,/ | 
E3E | 
E2^D2 | 
EE CC | 
B,4 | 
A,3/F,/ E, z | 
B,4 | 
[M:3/4]B,4A,3/F,/ | 
[M:2/4]A,2F, z | 
E,2E,2 | 
E,^D,/ z/E,2 | 
E,4 | 
(E,^D,)z2 |]  



